X:1
T:Title
%%score { ( 1 3 ) | 2 }
L:1/8
Q:1/4=114
M:3/4
K:C
V:1 treble nm="Grand Piano"
V:3 treble 
V:2 bass 
V:1
 E2 [DF]2 [_E^F]2 | [_EA]3 [=EG] [EG]2 | [Ec]2 [GB]2 [FA]2 | [EG]6 | F2 E2 F2 | B3 A G2 | %6
w: C.~Harold~Lowden * *||||||
 F2 G2 [DF]2 | E6 | E2 [DF]2 [_E^F]2 | [_EA]3 [=EG] [EG]2 | [Ec]2 [FB]2 [Gc]2 | [FA]6 | %12
w: ||||||
 [^FA]2 [Fd]2 [Fc]2 | B3 A G2 | ^F2 G2 [FA]2 | G6 | [Ee]3 [Ed] [Ec]2 | [Fc]2 [B,GB]2 [CFA]2 | %18
w: ||||||
 [CEG]2 [G,CE]2 [CFA]2 | [CEG]6 | [CFA]2 [DFA]2 [DGB]2 | [CGc]2 [DGB]2 [CGc]2 | [Fd]2 [Ac]2 [Ad]2 | %23
w: |||||
 [^Ge]6 | e2 f2 e2 | [^Fe]2 [Fd]2 [FA]2 | B2 c2 d2 | c6 | c2 B2 A2 | %29
w: ||||||
 G2 c2 c2[Q:1/4=112][Q:1/4=111][Q:1/4=109][Q:1/4=107][Q:1/4=106][Q:1/4=104][Q:1/4=102][Q:1/4=101] | %30
w: |
 [^Fd]2 [FA]2 [=FB]2[Q:1/4=99][Q:1/4=97][Q:1/4=96][Q:1/4=94][Q:1/4=92][Q:1/4=91][Q:1/4=89][Q:1/4=87] | %31
w: |
 [Ec]6 |] %32
w: |
V:2
 [C,C]2 [C,B,]2 [C,A,]2 | [C,^F,]3 [C,G,] [C,G,]2 | [C,G,]2 [C,C]2 [C,C]2 | [C,C]6 | %4
 [G,B,D]2 [G,_B,^C]2 [G,=B,D]2 | [G,DF]3 [G,B,F][K:bass] [G,B,E]2 | [G,D]2 [G,B,]2 [G,,G,]2 | %7
 [C,G,C]6 | [C,C]2 [C,B,]2 [C,A,]2 | [C,^F,]3 [C,G,] [C,G,]2 | [C,G,]2 [D,G,]2 [E,C]2 | [F,C]6 | %12
 [D,D]2 [D,A,]2 [D,D]2 | [G,DG]3 [G,CD][K:bass] [G,B,D]2 | [D,A,D]2 [D,B,D]2 [D,C]2 | [G,B,]6 | %16
 [C,C]3 [C,G,] [C,G,]2 | [F,A,]2 F,2 F,2 | C,2 C,2 C,2 | C,6 | F,2 F,2 F,2 | E,2 F,2 E,2 | %22
 [F,A,]2 [F,C]2 [F,B,]2 | [E,B,]6 | [A,^CG]2 [A,CG]2 [A,CG]2 | [D,C]2 [D,C]2 [D,D]2 | %26
 [G,DF]2 [G,A,F]2 [G,B,F]2 | [A,CE]6 | [^F,A,_E]2 [F,B,E]2 [F,CE]2 | [G,CE]2 [A,CE]2 [A,CE]2 | %30
 [D,C]2 [D,D]2 [G,D]2 | [C,C]6 |] %32
V:3
 x6 | x6 | x6 | x6 | x6 | x6 | x6 | x6 | x6 | x6 | x6 | x6 | x6 | x6 | x6 | z2 z2 F2 | x6 | x6 | %18
 x6 | x6 | x6 | x6 | x6 | x6 | x6 | x6 | x6 | x6 | x6 | x6 | x6 | x6 |] %32

